X: 1163
T: Another Jig Will Do!
B:O'Neill's Music of Ireland
N:O'Neill's - 1163
Z:Transcribed by Stephen Foy (shf@access.digex.net)
Z:abc 1.6
M:9/8
R:slipjig
K:D
ABA A2 G F2 G | ABA AGF G3 | ABA A2 G F2 G | A2 d d2 c d3 :|
A2 g f2 d e2 c | A2 B =c2 d c3 | A2 g f2 d e2 c | A2 d d2 c d3 |
A2 g f2 d e2 c | A2 B =c2 d c2 ^c | d2 A A2 G F2 G | A2 d d2 c d3 :|


